assets/sonr-icons/compass.svg

<svg xmlns="http://www.w3.org/2000/svg" width="24" height="24" fill="none" viewBox="0 0 24 24"><path fill="#000" fill-rule="evenodd" d="M15.7912 7.33055C15.4415 7.20725 15.1152 7.27064 14.9402 7.31179C14.7607 7.35399 14.549 7.42445 14.343 7.49304L10.0254 8.93219L10.0234 8.93287L9.9973 8.94143C9.90559 8.9712 9.70668 9.03578 9.53298 9.15423C9.37644 9.2604 9.25289 9.39067 9.15926 9.52562L9.15365 9.53389C9.03662 9.70634 8.9731 9.90073 8.94178 9.99656L8.93297 10.0233L7.49068 14.3502C7.42314 14.553 7.35349 14.7622 7.3117 14.9393C7.27048 15.1139 7.20584 15.4435 7.33248 15.7963L7.33286 15.7973C7.47701 16.1974 7.79232 16.5207 8.20463 16.6672C8.55693 16.7931 8.88635 16.728 9.05913 16.6873C9.23705 16.6453 9.44722 16.5754 9.65114 16.5075L13.9736 15.0667L13.9756 15.066L14.0017 15.0574C14.0934 15.0277 14.292 14.9632 14.4656 14.845C14.6223 14.7387 14.7461 14.6083 14.8398 14.4732L14.8454 14.465C14.9624 14.2925 15.0259 14.0981 15.0573 14.0023L15.0661 13.9755L16.5084 9.64866C16.5759 9.44583 16.6456 9.23666 16.6873 9.0596C16.7286 8.88495 16.7932 8.55537 16.6666 8.20258L16.6662 8.20152C16.5217 7.80049 16.205 7.47657 15.7912 7.33055ZM10.7235 10.7234L14.5516 9.44732L13.2756 13.2755L9.44742 14.5515L10.7235 10.7234Z" clip-rule="evenodd"/><path fill="#000" fill-rule="evenodd" d="M12 1.44006C6.16781 1.44006 1.44 6.16787 1.44 12.0001C1.44 17.8323 6.16781 22.5601 12 22.5601C17.8322 22.5601 22.56 17.8323 22.56 12.0001C22.56 6.16787 17.8322 1.44006 12 1.44006ZM3.36 12.0001C3.36 7.22826 7.2282 3.36006 12 3.36006C16.7718 3.36006 20.64 7.22826 20.64 12.0001C20.64 16.7719 16.7718 20.6401 12 20.6401C7.2282 20.6401 3.36 16.7719 3.36 12.0001Z" clip-rule="evenodd"/></svg>

<svg xmlns="http://www.w3.org/2000/svg" width="24" height="24" fill="none"><path fill="currentColor" fill-rule="evenodd" d="M15.791 7.33c-.35-.123-.676-.06-.85-.018-.18.042-.392.112-.598.181l-4.318 1.44h-.002l-.026.008a1.8 1.8 0 0 0-.464.213 1.4 1.4 0 0 0-.374.372l-.005.008c-.117.172-.18.367-.212.463l-.009.026-1.442 4.327a7 7 0 0 0-.18.59c-.04.174-.105.504.021.856v.001c.145.4.46.724.873.87.352.126.681.061.854.02a7 7 0 0 0 .592-.18l4.323-1.44.002-.001.026-.009c.091-.03.29-.094.464-.212.156-.106.28-.237.374-.372l.005-.008c.117-.172.18-.367.212-.463l.01-.027 1.441-4.326c.068-.203.138-.412.18-.59.04-.174.105-.504-.021-.856v-.001a1.44 1.44 0 0 0-.876-.871m-5.068 3.393 3.829-1.276-1.276 3.829-3.829 1.276z" clip-rule="evenodd"/><path fill="currentColor" fill-rule="evenodd" d="M12 1.44C6.168 1.44 1.44 6.168 1.44 12S6.168 22.56 12 22.56 22.56 17.832 22.56 12 17.832 1.44 12 1.44M3.36 12a8.64 8.64 0 1 1 17.28 0 8.64 8.64 0 0 1-17.28 0" clip-rule="evenodd"/></svg>
